X: 1
T: Mylecharaine's March
Z: irishfiddleCT
S: https://thesession.org/tunes/11795#setting11795
R: waltz
M: 3/4
L: 1/8
K: Dmaj
d>c | d2 A2 d>c | d2 A2 d>c |d2 A>G (3FED | E2 D2 (3def |g2 f2 e2 |
d2c2 d2 | e2 e>f g>f | e3 d c>d |e2 a2 g2 | f2 e2 d>c |
d2 A>G (3FED | E4 F>G |A2 G>F E>D | E2 d2 c2 | (d6 | d4) :|
|: (3ABc |d>c d>e (3fed | ed ef (3gfe|d>c d>e (3fed | e>c A2 c>d|
e2 a2 g2 |f2 e2 d>c | d2 A>G (3FED| E4 F>G |A2 G>F E>D | E2 d2 c2 | (d6 | d4) :|
